Assets/Icons/interaction/eye-open.svg

<svg enable-background="new 0 0 60 60" viewBox="0 0 60 60" xmlns="http://www.w3.org/2000/svg"><circle cx="30" cy="27" r="5"/><path d="m58.46 28.64c-3.42-3.7-13.98-13.64-28.46-13.64s-25.04 9.94-28.46 13.64c-.71.77-.71 1.96 0 2.73 3.42 3.69 13.98 13.63 28.46 13.63s25.04-9.94 28.46-13.64c.72-.77.72-1.95 0-2.72zm-28.46-10.64c4.99 0 9.05 4.06 9.05 9.05s-4.06 9.05-9.05 9.05-9.05-4.06-9.05-9.05 4.06-9.05 9.05-9.05zm0 24.02c-12.6 0-22.2-8.48-25.65-12.02 2.52-2.59 8.34-7.81 16.22-10.43-1.63 2.06-2.62 4.65-2.62 7.48 0 6.65 5.39 12.05 12.05 12.05s12.05-5.39 12.05-12.05c0-2.83-.98-5.43-2.62-7.48 7.87 2.62 13.69 7.84 16.22 10.43-3.45 3.54-13.05 12.02-25.65 12.02z"/></svg>

<?xml version="1.0" encoding="utf-8"?>
<!-- Generator: Adobe Illustrator 21.1.0, SVG Export Plug-In . SVG Version: 6.00 Build 0)  -->
<svg version="1.1" id="eps" xmlns="http://www.w3.org/2000/svg" xmlns:xlink="http://www.w3.org/1999/xlink" x="0px" y="0px"
	 viewBox="0 0 60 60" style="enable-background:new 0 0 60 60;" xml:space="preserve">
<g>
	<circle cx="30" cy="27" r="5"/>
	<path d="M58.46,28.64C55.04,24.94,44.48,15,30,15S4.96,24.94,1.54,28.64c-0.71,0.77-0.71,1.96,0,2.73C4.96,35.06,15.52,45,30,45
		s25.04-9.94,28.46-13.64C59.18,30.59,59.18,29.41,58.46,28.64z M30,18c4.99,0,9.05,4.06,9.05,9.05S34.99,36.1,30,36.1
		s-9.05-4.06-9.05-9.05S25.01,18,30,18z M30,42.02C17.4,42.02,7.8,33.54,4.35,30c2.52-2.59,8.34-7.81,16.22-10.43
		c-1.63,2.06-2.62,4.65-2.62,7.48c0,6.65,5.39,12.05,12.05,12.05s12.05-5.39,12.05-12.05c0-2.83-0.98-5.43-2.62-7.48
		C47.3,22.19,53.12,27.41,55.65,30C52.2,33.54,42.6,42.02,30,42.02z"/>
</g>
</svg>
